X: 1
T: Liam Murphy's Delight
M: 4/4
L: 1/8
R: reel
K: Amix
|:aAgA de~e2|decG ~A3a|~a2g2 deg2|ga~a2 ba~a2|
aAgA de~e2|decG ~A3B|ce~e2 decG|1~A2GB A2(3aaa:|2~A2GB a2z2||
|:ce~e2 ce~e2|decG ~A3B|ce~e2 deed|(de)~e2 dcAB|
ce~e2 ce~e2|decG ~A3B|ce~e2 decG|1~A2GB A3B:|2~A2GB A2(3aaa||
